z_dist/img/icons/crypto/aave-AAVE.svg

<svg width="64" height="64" viewBox="0 0 64 64" fill="none" xmlns="http://www.w3.org/2000/svg">
<rect width="64" height="64" rx="4" fill="url(#paint0_linear_574_470749)"/>
<path d="M46.0049 44.7506L35.1843 18.5898C34.5739 17.2372 33.6667 16.5774 32.4709 16.5774H31.5142C30.3183 16.5774 29.4111 17.2372 28.8008 18.5898L24.0915 29.9877H20.5286C19.4647 29.9959 18.5987 30.8537 18.5904 31.9258V31.9506C18.5987 33.0145 19.4647 33.8805 20.5286 33.8887H22.442L17.9471 44.7506C17.8647 44.9898 17.8152 45.2372 17.8152 45.4929C17.8152 46.1032 18.0049 46.5815 18.343 46.9526C18.6812 47.3238 19.1678 47.5052 19.7781 47.5052C20.1822 47.497 20.5698 47.3733 20.8915 47.1341C21.2379 46.8949 21.477 46.5485 21.6667 46.1526L26.6152 33.8805H30.0461C31.11 33.8722 31.976 33.0145 31.9843 31.9423V31.8929C31.976 30.8289 31.11 29.963 30.0461 29.9547H28.2152L31.9925 20.5444L42.2853 46.1444C42.475 46.5403 42.7142 46.8867 43.0605 47.1258C43.3822 47.365 43.7781 47.4887 44.1739 47.497C44.7843 47.497 45.2626 47.3155 45.609 46.9444C45.9554 46.5733 46.1368 46.0949 46.1368 45.4846C46.1451 45.2372 46.1038 44.9815 46.0049 44.7506Z" fill="white"/>
<defs>
<linearGradient id="paint0_linear_574_470749" x1="32" y1="0" x2="0" y2="32" gradientUnits="userSpaceOnUse">
<stop stop-color="#B6509E"/>
<stop offset="1" stop-color="#2EBAC6"/>
</linearGradient>
</defs>
</svg>

<svg width="64" height="64" fill="none" xmlns="http://www.w3.org/2000/svg"><rect width="64" height="64" rx="4" fill="url(#paint0_linear_574_470749)"/><path d="M46.005 44.75l-10.82-26.16c-.611-1.353-1.518-2.013-2.714-2.013h-.957c-1.196 0-2.103.66-2.713 2.013l-4.71 11.398H20.53a1.952 1.952 0 00-1.939 1.938v.025a1.957 1.957 0 001.939 1.938h1.913L17.947 44.75a2.27 2.27 0 00-.132.742c0 .61.19 1.088.528 1.46.338.37.825.552 1.435.552a1.918 1.918 0 001.114-.37c.346-.24.585-.587.775-.982l4.948-12.273h3.431a1.952 1.952 0 001.938-1.938v-.05a1.957 1.957 0 00-1.938-1.937h-1.83l3.776-9.41 10.293 25.6c.19.395.43.742.776.98.321.24.717.364 1.113.372.61 0 1.089-.181 1.435-.553.346-.37.528-.85.528-1.46a1.73 1.73 0 00-.132-.733z" fill="#fff"/><defs><linearGradient id="paint0_linear_574_470749" x1="32" y1="0" x2="0" y2="32" gradientUnits="userSpaceOnUse"><stop stop-color="#B6509E"/><stop offset="1" stop-color="#2EBAC6"/></linearGradient></defs></svg>
